public/img/ui/terminal.svg

<svg width="40" height="40" viewBox="0 0 40 40" fill="none" xmlns="http://www.w3.org/2000/svg">
<g clip-path="url(#clip0_834_1130)">
<path d="M1 10.4609H39" stroke="#FF2D20" stroke-width="2" stroke-linecap="round" stroke-linejoin="round"/>
<path d="M30 34.8894H35.65C37.49 34.8894 39 33.3794 39 31.5394V8.45937C39 6.61937 37.49 5.10938 35.65 5.10938H4.35C2.51 5.10938 1 6.61937 1 8.45937V31.5294C1 33.3694 2.51 34.8794 4.35 34.8794H10" stroke="#FF2D20" stroke-width="2" stroke-linecap="round" stroke-linejoin="round"/>
<path d="M10.1699 16.3906H29.8299" stroke="#FF2D20" stroke-width="2" stroke-linecap="round" stroke-linejoin="round"/>
<path d="M10.1699 20H16.3799" stroke="#FF2D20" stroke-width="2" stroke-linecap="round" stroke-linejoin="round"/>
<path d="M20.3499 20H29.8299" stroke="#FF2D20" stroke-width="2" stroke-linecap="round" stroke-linejoin="round"/>
<path d="M10.1699 23.6094H20.0799" stroke="#FF2D20" stroke-width="2" stroke-linecap="round" stroke-linejoin="round"/>
<path d="M25.6199 30.9117C25.6899 31.1117 25.6299 31.3417 25.4699 31.4917L24.4599 32.4117C24.4899 32.6117 24.4999 32.8017 24.4999 33.0117C24.4999 33.2217 24.4899 33.4117 24.4599 33.6117L25.4699 34.5317C25.6299 34.6817 25.6899 34.9017 25.6199 35.1117C25.5199 35.3917 25.3899 35.6617 25.2499 35.9117L25.1399 36.1017C24.9799 36.3617 24.8099 36.6017 24.6199 36.8317C24.4799 37.0017 24.2499 37.0517 24.0499 36.9917L22.7399 36.5717C22.4299 36.8117 22.0799 37.0117 21.7099 37.1717L21.4199 38.5117C21.3699 38.7217 21.2099 38.8917 20.9899 38.9317C20.6699 38.9817 20.3299 39.0117 19.9899 39.0117C19.6499 39.0117 19.3199 38.9817 18.9899 38.9317C18.7699 38.8917 18.6099 38.7317 18.5599 38.5117L18.2699 37.1717C17.8999 37.0217 17.5499 36.8217 17.2399 36.5717L15.9399 36.9917C15.7299 37.0617 15.4999 36.9917 15.3699 36.8317C15.1799 36.6017 15.0099 36.3617 14.8499 36.1017L14.7399 35.9117C14.5999 35.6517 14.4699 35.3917 14.3699 35.1117C14.2899 34.9117 14.3599 34.6817 14.5199 34.5317L15.5299 33.6117C15.4999 33.4117 15.4899 33.2117 15.4899 33.0117C15.4899 32.8117 15.4999 32.6117 15.5299 32.4117L14.5199 31.4917C14.3599 31.3417 14.2899 31.1217 14.3699 30.9117C14.4699 30.6317 14.5999 30.3617 14.7399 30.1117L14.8499 29.9217C14.9999 29.6617 15.1799 29.4217 15.3699 29.1917C15.5099 29.0217 15.7399 28.9717 15.9399 29.0317L17.2499 29.4517C17.5599 29.2117 17.9099 29.0117 18.2799 28.8517L18.5699 27.5117C18.6199 27.3017 18.7799 27.1317 18.9999 27.0917C19.3199 27.0317 19.6599 27.0117 19.9999 27.0117C20.3399 27.0117 20.6699 27.0417 20.9999 27.0917C21.2199 27.1317 21.3799 27.2917 21.4299 27.5117L21.7199 28.8517C22.0899 29.0017 22.4399 29.2017 22.7499 29.4417L24.0599 29.0217C24.2699 28.9517 24.4999 29.0217 24.6299 29.1817C24.8199 29.4117 24.9899 29.6517 25.1499 29.9117L25.2599 30.1017C25.3999 30.3617 25.5299 30.6217 25.6299 30.9017L25.6199 30.9117ZM19.9999 34.8817C20.6699 34.8817 21.2899 34.5217 21.6199 33.9417C21.9499 33.3617 21.9499 32.6517 21.6199 32.0617C21.2899 31.4717 20.6699 31.1217 19.9999 31.1217C19.3299 31.1217 18.7099 31.4817 18.3799 32.0617C18.0499 32.6417 18.0499 33.3517 18.3799 33.9417C18.7099 34.5317 19.3299 34.8817 19.9999 34.8817Z" stroke="#FF2D20" stroke-width="2" stroke-linecap="round" stroke-linejoin="round"/>
<path d="M8.25989 29.5884H7.94989C6.60989 29.5884 5.52989 28.5084 5.52989 27.1684V23.7184C5.52989 22.8584 5.21989 22.0184 4.63989 21.3684C5.20989 20.7184 5.52989 19.8884 5.52989 19.0184V15.5684C5.52989 14.2284 6.60989 13.1484 7.94989 13.1484H8.25989" stroke="#FF2D20" stroke-width="2" stroke-linecap="round" stroke-linejoin="round"/>
<path d="M31.74 29.5884H32.05C33.39 29.5884 34.47 28.5084 34.47 27.1684V23.7184C34.47 22.8584 34.78 22.0184 35.36 21.3684C34.79 20.7184 34.47 19.8884 34.47 19.0184V15.5684C34.47 14.2284 33.39 13.1484 32.05 13.1484H31.74" stroke="#FF2D20" stroke-width="2" stroke-linecap="round" stroke-linejoin="round"/>
</g>
<defs>
<clipPath id="clip0_834_1130">
<rect width="40" height="40" fill="white"/>
</clipPath>
</defs>
</svg>

<svg fill="none" height="40" viewBox="0 0 40 40" width="40" xmlns="http://www.w3.org/2000/svg" xmlns:xlink="http://www.w3.org/1999/xlink"><clipPath id="a"><path d="m0 0h40v40h-40z"/></clipPath><g clip-path="url(#a)" stroke="#ff2d20" stroke-linecap="round" stroke-linejoin="round" stroke-width="2"><path d="m1 10.4609h38"/><path d="m30 34.8894h5.65c1.84 0 3.35-1.51 3.35-3.35v-23.08003c0-1.84-1.51-3.34999-3.35-3.34999h-31.3c-1.84 0-3.35 1.50999-3.35 3.34999v23.07003c0 1.84 1.51 3.35 3.35 3.35h5.65"/><path d="m10.1699 16.3906h19.66"/><path d="m10.1699 20h6.21"/><path d="m20.3499 20h9.48"/><path d="m10.1699 23.6094h9.91"/><path d="m25.6199 30.9117c.07.2.01.43-.15.58l-1.01.92c.03.2.04.39.04.6s-.01.4-.04.6l1.01.92c.16.15.22.37.15.58-.1.28-.23.55-.37.8l-.11.19c-.16.26-.33.5-.52.73-.14.17-.37.22-.57.16l-1.31-.42c-.31.24-.66.44-1.03.6l-.29 1.34c-.05.21-.21.38-.43.42-.32.05-.66.08-1 .08s-.67-.03-1-.08c-.22-.04-.38-.2-.43-.42l-.29-1.34c-.37-.15-.72-.35-1.03-.6l-1.3.42c-.21.07-.44 0-.57-.16-.19-.23-.36-.47-.52-.73l-.11-.19c-.14-.26-.27-.52-.37-.8-.08-.2-.01-.43.15-.58l1.01-.92c-.03-.2-.04-.4-.04-.6s.01-.4.04-.6l-1.01-.92c-.16-.15-.23-.37-.15-.58.1-.28.23-.55.37-.8l.11-.19c.15-.26.33-.5.52-.73.14-.17.37-.22.57-.16l1.31.42c.31-.24.66-.44 1.03-.6l.29-1.34c.05-.21.21-.38.43-.42.32-.06.66-.08 1-.08s.67.03 1 .08c.22.04.38.2.43.42l.29 1.34c.37.15.72.35 1.03.59l1.31-.42c.21-.07.44 0 .57.16.19.23.36.47.52.73l.11.19c.14.26.27.52.37.8zm-5.62 3.97c.67 0 1.29-.36 1.62-.94s.33-1.29 0-1.88-.95-.94-1.62-.94-1.29.36-1.62.94-.33 1.29 0 1.88.95.94 1.62.94z"/><path d="m8.25989 29.5884h-.31c-1.34 0-2.42-1.08-2.42-2.42v-3.45c0-.86-.31-1.7-.89-2.35.57-.65.89-1.48.89-2.35v-3.45c0-1.34 1.08-2.42 2.42-2.42h.31"/><path d="m31.74 29.5884h.31c1.34 0 2.42-1.08 2.42-2.42v-3.45c0-.86.31-1.7.89-2.35-.57-.65-.89-1.48-.89-2.35v-3.45c0-1.34-1.08-2.42-2.42-2.42h-.31"/></g></svg>
